X:1
T: Easter Sunday
C:
R:Jig
Q:180
K:D
M:6/8
L:1/16
AF|D2E2D2 D2d2B2|A2G2F2 G4A2|B2G2G2 A2F2D2|E2F2E2 E4AF|D2E2D2 d4B2|A2G2F2 G4A2|B2G2B2 A2F2A2|D2E2D2 D4AF|
D2E2D2 D2d2B2|A2G2F2 G4A2|B2G2G2 A2F2D2|E2F2E2 E4AF|D2E2D2 d4B2|A2G2F2 G4A2|B2G2B2 A2F2A2|D2E2D2 D4de|
f2d2B2 A2B2d2|e2f2g2 f2e2d2|f2d2B2 A2B2d2|f2e2e2 e4de|f2d2B2 A2B2d2|e2fed2 e2a2g2|f2d2B2 A2d2e2|f2d2d2 d4de|
f2d2B2 A2B2d2|e2f2g2 f2e2d2|f2d2B2 A2B2d2|f2e2e2 e4de|f2d2B2 A2B2d2|e2fed2 e2a2g2|f2d2B2 A2d2e2|f2d2d2 d4||
